X: 1
T: Wandering Spirit
M: 9/8
L: 1/8
R: slip jig
K: A Dorian
|: A3 ABG AGE | A2 F G2 E DEG | A2 A ABG AGE | G2 G GED DEG :|
|: c3 BAG AGE | c2 c BAG A3 | c3 BAG AGE | G2 G GED DEG :|
